x-pack/platform/plugins/shared/content_connectors/public/assets/icons/sharepoint.svg

<svg width="64" height="64" viewBox="0 0 64 64" fill="none" xmlns="http://www.w3.org/2000/svg">
<path d="M0 8.26578L35.2068 2C35.2189 22 35.2068 42 35.2068 62C23.4792 59.9314 11.7517 57.8268 0 55.7583V8.26578ZM11.7275 21.8076C10.2888 23.5033 9.84145 25.8485 10.1074 28.0012C10.3251 29.8773 11.3769 31.5971 12.8036 32.7877C14.1093 33.8942 15.7778 34.5676 16.9505 35.8665C17.8331 36.8407 18.0507 38.4642 17.1681 39.5105C16.4669 40.3524 15.2579 40.4125 14.2665 40.2441C12.598 40.0036 11.1835 38.9814 10.0833 37.7426L10.0953 42.926C11.7154 44.1527 13.8071 44.5857 15.8019 44.5737C17.2165 44.5376 18.6552 44.2129 19.8038 43.359C21.2426 42.3127 22.0768 40.6049 22.2823 38.8731C22.5725 36.8527 22.2339 34.6759 20.9766 33.0162C19.8764 31.6332 18.4013 30.623 16.9022 29.733C16.0921 29.2399 15.2821 28.7108 14.738 27.917C14.0972 26.8346 14.1214 25.2952 15.0644 24.4053C15.8503 23.6476 17.0472 23.5875 18.0749 23.7078C19.3323 23.84 20.5171 24.4053 21.4964 25.175V20.0277C19.8643 19.3662 18.0507 19.294 16.3218 19.4263C14.5687 19.6548 12.8519 20.4486 11.7275 21.8076ZM38.6162 12.0541C39.8252 10.8755 41.5058 10.1539 43.2105 10.3103C45.6407 10.4426 47.7806 12.3307 48.3851 14.6518C48.6269 15.5298 48.639 16.4438 48.4939 17.3337C52.4112 18.9453 55.603 22.2285 57.1143 26.1732C58.8311 25.8485 60.693 26.3416 61.9867 27.5201C64.0299 29.264 64.5861 32.4269 63.3408 34.8082C62.2285 37.0451 59.5686 38.38 57.1022 37.8749C55.5909 41.8076 52.4354 45.0908 48.5181 46.6903C48.8567 48.6266 48.2642 50.7072 46.8497 52.1022C45.3868 53.6055 43.0292 54.1588 41.0343 53.4853C40.1275 53.1726 39.2812 52.6675 38.6404 51.9459V43.6837C39.7769 42.5051 41.397 41.7835 43.0413 41.8677C44.6009 41.9038 46.0517 42.6855 47.1036 43.7799C50.4042 42.4811 53.052 39.727 54.261 36.4077C53.2817 35.3975 52.5805 34.0986 52.4354 32.6915C52.1936 30.8274 52.9552 28.9393 54.261 27.6284C53.052 24.2971 50.3921 21.5189 47.0673 20.2201C46.1243 21.3025 44.7581 22.012 43.3314 22.1563C41.5904 22.3488 39.8373 21.6031 38.6162 20.3764V12.0541Z" fill="#0072C6"/>
</svg>

<svg xmlns="http://www.w3.org/2000/svg" width="64" height="64" fill="none"><path fill="#0072C6" d="M0 8.266 35.207 2c.012 20 0 40 0 60C23.479 59.931 11.752 57.827 0 55.758zm11.728 13.542c-1.44 1.695-1.887 4.04-1.62 6.193.217 1.876 1.269 3.596 2.696 4.787 1.305 1.106 2.974 1.78 4.147 3.079.882.974 1.1 2.597.217 3.644-.701.841-1.91.901-2.901.733-1.669-.24-3.083-1.263-4.184-2.501l.012 5.183c1.62 1.227 3.712 1.66 5.707 1.648 1.415-.036 2.853-.361 4.002-1.215 1.439-1.046 2.273-2.754 2.478-4.486.29-2.02-.048-4.197-1.305-5.857-1.1-1.383-2.576-2.393-4.075-3.283-.81-.493-1.62-1.022-2.164-1.816-.64-1.082-.617-2.622.326-3.512.786-.757 1.983-.818 3.01-.697 1.258.132 2.443.697 3.422 1.467v-5.147c-1.632-.662-3.445-.734-5.174-.602-1.753.229-3.47 1.023-4.594 2.382m26.888-9.754c1.21-1.178 2.89-1.9 4.595-1.744 2.43.133 4.57 2.02 5.174 4.342.242.878.254 1.792.109 2.682 3.917 1.611 7.109 4.895 8.62 8.84 1.717-.325 3.579.168 4.873 1.346 2.043 1.744 2.6 4.907 1.354 7.288-1.113 2.237-3.772 3.572-6.239 3.067-1.511 3.933-4.667 7.216-8.584 8.815.339 1.937-.254 4.017-1.668 5.412-1.463 1.504-3.82 2.057-5.816 1.383-.907-.312-1.753-.818-2.394-1.54v-8.261c1.137-1.179 2.757-1.9 4.401-1.816 1.56.036 3.01.817 4.063 1.912 3.3-1.299 5.948-4.053 7.157-7.372-.98-1.01-1.68-2.31-1.826-3.717-.241-1.864.52-3.752 1.826-5.063-1.209-3.33-3.869-6.11-7.194-7.408a5.8 5.8 0 0 1-3.736 1.936c-1.74.193-3.494-.553-4.715-1.78z"/></svg>
